X: 1
T:The March of Champions Supreme
M:C
L:1/8
Q:80
C:W.Baird
S:March
K:HP
A|
{Gdc}d3/2c/2{g}d{e}A{g}e3/2f/2{gf}ge|
{g}fA{Gdc}df{ag}a3/2g/2{a}fd|
{a}g3/2B/2{G}Bg{a}f2{GdGe}Af|  !
{g}e3/2d/2{g}cd{gef}e2-eA|
{Gdc}d3/2c/2{g}d{e}A{g}e3/2f/2{gf}ge|
{g}fA{Gdc}df{ag}a3/2g/2{a}fd|  !
{a}g3/2B/2{G}Bg{a}f2{GdGe}Af|
{g}e{AGAG}A{g}c/2e3/2{Gdc}d2-d|]
A|  !
{g}e2{GdG}e3/2f/2{gf}ge{gcd}c{e}A|
{g}f2{GdG}f3/2g/2{ag}a3/2g/2{a}fd|
{a}g3/2B/2{G}Bg{a}f2{GdGe}Af|  !
{g}e3/2d/2{g}cd{gef}e2-eA|
{Gdc}d3/2c/2{g}d{e}A{g}e3/2f/2{gf}ge|
{g}fA{Gdc}df{ag}a3/2g/2{a}fd|  !
{a}g3/2B/2{G}Bg{a}f2{GdGe}Af|
{g}e{AGAG}A{g}c/2e3/2{Gdc}d2-d|]
